X: 1375
T:The Arklow Mountain
S:Tommy Peoples, Donegal (fiddle)
D:Demo tape - 197
R:Reel
N:As played
C:Tony Sullivan
Z:Bernie Stocks
M:4/4
K:D
Ad~d2 AGFG | Addf g=c~c2 | Ad~d2 efge | ~a3f ~g2fg | Ad~d2 AGFG | Addf g=c~c2 |
dB{d}=cA BGAF | GBAG {FG}FDD2 :| ~a3f ~g3e | dafd {cd}cAA2 | ~a3f ~g3e |
dfaf df{a}ge | A2a2(3.a.a.f gfge | dafd {cd}cAFG | Ad{e}dB ~=c3A | GBAG FDD2 :|
